svgs/bild.svg

<?xml version="1.0" encoding="UTF-8"?>
<svg width="24" height="24" fill="none" version="1.1" viewBox="0 0 24 24" xmlns="http://www.w3.org/2000/svg">
 <path d="m12.535 22h2.4654v-19.999h-2.4654zm-4.6003-1.0855c-0.0014 0.59735-0.48177 1.0772-1.0743 1.0787h-4.8601l0.0015-19.992h4.8645c0.58653 9.789e-4 1.0669 0.48122 1.0683 1.0786v7.0076c0 0.56497-0.46317 1.0213-1.0277 1.0213l-0.10779-5.67e-4c0.62445 0 1.1355 0.50775 1.1355 1.1316v8.6748zm-3.4687-16.445h1.012v5.6971h-1.012zm0 8.1451h1.012v6.9046h-1.012zm17.533 9.385v-20h-2.466v3.481h-2.3994c-0.58721 9.638e-4 -1.064 0.48135-1.0655 1.0787l-0.0029 14.355c0.0016 0.59735 0.48177 1.0772 1.0743 1.0787l4.8595 0.0064zm-2.465-14.076h-1.012v11.595h1.012zm-10.531-3.4546h2.4653v-2.4687h-2.4653zm0 17.53h2.4653v-16.518h-2.4653z" fill="#000" fill-rule="evenodd" stroke-width=".047122"/>
</svg>

<svg width="24" height="24" fill="none" viewBox="0 0 24 24" xmlns="http://www.w3.org/2000/svg"><path d="M12.535 22H15V2.001h-2.465zm-4.6-1.085a1.078 1.078 0 0 1-1.075 1.078H2l.002-19.992h4.864A1.076 1.076 0 0 1 7.935 3.08v7.007c0 .565-.464 1.022-1.028 1.022h-.108c.625 0 1.136.507 1.136 1.13v8.676zM4.466 4.47h1.012v5.697H4.466zm0 8.145h1.012v6.904H4.466zM21.999 22V2h-2.466v3.48h-2.4a1.074 1.074 0 0 0-1.065 1.08l-.003 14.354a1.078 1.078 0 0 0 1.074 1.079l4.86.006zM19.534 7.924h-1.012v11.595h1.012zM9.003 4.469h2.465V2H9.003zm0 17.53h2.465V5.481H9.003z" fill="#000" fill-rule="evenodd"/></svg>
